X:1
T:Bach for Solo Flute (?)
T:Courante
T:Bach for Solo Flute (XIV)
T:Courante from Suite No. III for Cello (BWV 1009) Transcription for Flute 
T:Johann Sebastian Bach (1685-1750)
T:Transcription by Felix Scharpf
T:twoflutes 2020 / Felix Scharpf / Johann_Sebastian_Bach_signature.svg-2.png
T:twoflutes 2020 / Felix Scharpf / Johann_Sebastian_Bach_signature.svg-2.png
C:Johann Sebastian Bach (1685-1750)
Z:twoflutes 2020 / Felix Scharpf / Johann_Sebastian_Bach_signature.svg-2.png
L:1/8
Q:1/4=160
M:3/4
K:C
V:1 treble nm="Flöte" snm="Fl."
V:1
!mf! c' |!>(! .c'.g.e.c.G.E | !tenuto!C!>)!!<(!(c'd'c'bc')!<)! |!mf! .d'!>(!.b.g.d.B.G!>)! | %4
 !tenuto!F!<(!(d'c'bag)!<)! |!mf! .c'.b.a.g.f.e | .f.d.G.a.g.f | (edcBc).G | C3!mp! (G/d/ e^f) | %9
 (Bdg).a.b.c' | .^g.d'.e(d'c'b) | (c'ba).^g.a.e | (cde).c.A.=G |"_cresc." (^FAd).e.^f.g | %14
 .a.^f.d(c'ba) | (bag).^f.g.d | (Bcd).B.G.=F | !tenuto!E!mf!(gag).^f.g | (cdc.B.A.G) | %19
 !tenuto!^F(aba).g.a | (ced.c.B.A) | !tenuto!G(bc'b).e.b | !tenuto!A(c'd'c').^f.c' | %23
 !tenuto!B(d'e'd'c'b) | (ag=fef).d | !tenuto!C(fedec) |!mp! !tenuto!B(cde^fg) | %27
"_cresc." !tenuto!A(de^fga) | !tenuto!G(e^fgab) |!f! !>!D(c'ac').^f.c' |!p! !>!d(c'ac').^f.c' | %31
!f! !>!d(_bgb).^f.b |!p! !>!d(_bgb).^f.b |!f! !>!_e(aga).^f.a |!p! !>!_e(aga).^f.a | %35
!mp!!<(! (c'a^f).d.A.^F!<)! |!mf! !tenuto!D3 (d^fa) | (bc'd').a.b.g | (abc').g.a.^f | %39
 .g(dec).A.^f | G4 z ::!mf! d' |!>(! .d'.b.g.d.B.d!>)! | (fdBAB).G |!mp! !tenuto!C(fed).e.g | %45
 (c'd'e').b.c'.a | (fga).e.f.d | .B(abc'd'b) | (^g^fg).a.b.g | !>!.e.b.^g.e.e'.d | %50
 !>!.c.a.e.c.B.=g | !>!.A.f.c.A.G.e | !>!.F.d.A.F.E.c | !tenuto!D(c'bc'd'^g) | %54
 !tenuto!C(e'd'c'ba) | .e(d'c'ba^g) |!f! .a.e.d.c.d.e | A3!mp! (a/b/ c'/b/c'/a/) | .g.e.c.e.g._b | %59
 !>!E(d'c'_bag) | .a(fef).c.f | .A.c.F(aga) | (_bag).f.e.g | .^c.e.G(_BAG) | (FEF).G.A.F | %65
 .D.F.A(def) | .^G(fedcB) | (!>!Acf).a.f.d | !>!B(agfed) | (!>!cea).c'.a.f | !>!d(c'bagf) | %71
 (!>!egc').e'.c'.a | !>!f(e'd'c'ba) | .b.d'.b.g.d.B |!f! !>!G(fdf).B.f |!p! !>!G(fdf).B.f | %76
!f! !>!G(_ece).B.e |!p! !>!G(_ece).B.e |!f! !>!_A(dcd).B.d |!p! !>!_A!<(!(dcd).B.d | %80
 (fG).B.d.f.b!<)! |!f! d'3 .c'.b.a | (gfe).g.f.d | (edc).e.d.B |1 .c.g.a.f.d.b | c'4 z :|2 %86
[Q:1/4=120]"_rit." .c[Q:1/4=110].g.a[Q:1/4=100].f[Q:1/4=90].d[Q:1/4=80].b | c'4 z |] %88

